svgs/sharp-light/box-taped.svg

<svg xmlns="http://www.w3.org/2000/svg" viewBox="0 0 448 512"><!--! Font Awesome Pro 6.4.2 by @fontawesome - https://fontawesome.com License - https://fontawesome.com/license (Commercial License) Copyright 2023 Fonticons, Inc. --><path d="M42.1 160L84.8 64H178l-18 96H144L42.1 160zM144 192h16v64 32h32 64 32V256 192h16H416V448H32V192H144zm48 0h64v64H192V192zm96-32L270 64h93.2l42.7 96H304 288zm-32.6 0H192.6l18-96h26.9l18 96zM264 32H184 64L0 176V448v32H32 416h32V448 176L384 32H264z"/></svg>

<svg xmlns="http://www.w3.org/2000/svg" viewBox="0 0 448 512"><!--! Font Awesome Pro 6.6.0 by @fontawesome - https://fontawesome.com License - https://fontawesome.com/license (Commercial License) Copyright 2024 Fonticons, Inc. --><path d="M42.1 160L84.8 64 178 64l-18 96-16 0L42.1 160zM144 192l16 0 0 64 0 32 32 0 64 0 32 0 0-32 0-64 16 0 112 0 0 256L32 448l0-256 112 0zm48 0l64 0 0 64-64 0 0-64zm96-32L270 64l93.2 0 42.7 96L304 160l-16 0zm-32.6 0l-62.9 0 18-96 26.9 0 18 96zM264 32l-80 0L64 32 0 176 0 448l0 32 32 0 384 0 32 0 0-32 0-272L384 32 264 32z"/></svg>
